Origami/64x64/apps/touchpad-indicator.svg

<svg width="64" height="64" version="1" xmlns="http://www.w3.org/2000/svg">
 <rect transform="matrix(0,-1,-1,0,0,0)" x="-59" y="-58" width="52" height="52" rx="2.5" ry="2.5" style="opacity:.2"/>
 <rect transform="matrix(0,-1,-1,0,0,0)" x="-58" y="-58" width="52" height="52" rx="2.5" ry="2.5" style="fill:#4f4f4f"/>
 <g transform="matrix(2,0,0,2,2e-4,0)" style="opacity:.4">
  <rect x="4" y="22" width="11" height="6" rx="1.25" ry="1.25"/>
  <rect x="17" y="22" width="11" height="6" rx="1.25" ry="1.25"/>
  <rect x="24" y="7" width="4" height="1"/>
  <rect x="24" y="9" width="4" height="1"/>
  <rect x="24" y="11" width="4" height="1"/>
  <rect x="24" y="13" width="4" height="1"/>
  <rect x="24" y="15" width="4" height="1"/>
  <rect x="24" y="17" width="4" height="1"/>
 </g>
 <path d="m8.5 6c-1.385 0-2.5 1.115-2.5 2.5v1c0-1.385 1.115-2.5 2.5-2.5h47c1.385 0 2.5 1.115 2.5 2.5v-1c0-1.385-1.115-2.5-2.5-2.5h-47z" style="fill:#ffffff;opacity:.1"/>
</svg>

<svg xmlns="http://www.w3.org/2000/svg" width="64" height="64" version="1">
 <rect style="opacity:0.2" width="52" height="52" x="-59" y="-58" rx="2.5" ry="2.5" transform="matrix(0,-1,-1,0,0,0)"/>
 <rect style="fill:#4f4f4f" width="52" height="52" x="-58" y="-58" rx="2.5" ry="2.5" transform="matrix(0,-1,-1,0,0,0)"/>
 <g style="opacity:0.40" transform="matrix(2,0,0,2,2e-4,0)">
  <rect width="11" height="6" x="4" y="22" rx="1.25" ry="1.25"/>
  <rect width="11" height="6" x="17" y="22" rx="1.25" ry="1.25"/>
  <rect width="4" height="1" x="24" y="7"/>
  <rect width="4" height="1" x="24" y="9"/>
  <rect width="4" height="1" x="24" y="11"/>
  <rect width="4" height="1" x="24" y="13"/>
  <rect width="4" height="1" x="24" y="15"/>
  <rect width="4" height="1" x="24" y="17"/>
 </g>
 <path style="fill:#ffffff;opacity:0.1" d="M 8.5 6 C 7.115 6 6 7.115 6 8.5 L 6 9.5 C 6 8.115 7.115 7 8.5 7 L 55.5 7 C 56.885 7 58 8.115 58 9.5 L 58 8.5 C 58 7.115 56.885 6 55.5 6 L 8.5 6 z"/>
</svg>
